static/images/mobile/copyright/wikipedia-wordmark-rue.svg

<?xml version="1.0" encoding="UTF-8"?>
<svg width="120px" height="22px" viewBox="0 0 120 22" version="1.1" xmlns="http://www.w3.org/2000/svg" xmlns:xlink="http://www.w3.org/1999/xlink">
    <title>rue-wordmark</title>
    <g id="Page-1" stroke="none" stroke-width="1" fill="none" fill-rule="evenodd">
        <path d="M7.48956651,-3.55271368e-15 C12.8798214,-3.55271368e-15 13.7193314,2.55825084 13.7193314,4.52712707 C13.7193314,6.12563127 12.4192719,7.63503147 10.9678429,8.38114323 L10.9678429,8.44018805 C13.4895934,9.17663793 15.4305575,10.7923188 15.4305575,13.6168081 C15.4305575,16.1439262 13.8932452,19.0886522 8.12725052,19.0886522 C5.54967592,19.0886522 5.14387701,19.0285339 3.89749462,19.0285339 C2.42030068,19.0285339 1.54965803,19.0575195 0.130435366,19.0886522 C-0.0434784554,18.9115178 -0.0434784554,18.2931575 0.130435366,18.1170966 C2.15942995,18.0290662 2.65218578,17.8819909 2.65218578,15.4407561 L2.65218578,3.64682254 C2.65218578,1.20666133 2.15942995,1.05958606 0.130435366,0.970482065 C-0.0434784554,0.795494702 -0.0434784554,0.177134448 0.130435366,0.00107354211 C1.57971721,0.0289856369 2.42030068,0.060118358 3.86850898,0.060118358 C5.11381783,0.0590448159 6.47506922,-3.55271368e-15 7.48956651,-3.55271368e-15 Z M5.11381783,8.26412714 L7.25875496,8.26412714 C9.66348928,8.26412714 11.3736419,7.38060199 11.3736419,4.8824695 C11.3736419,1.88191931 9.25876391,1.00054124 7.63664178,1.00054124 C5.11489137,1.00054124 5.11489137,1.29469178 5.11489137,2.26624739 L5.11381783,8.26412714 L5.11381783,8.26412714 Z M5.11381783,16.1439262 C5.11381783,17.1154818 5.49170465,18.1160231 7.51855215,18.1160231 C11.924369,18.1160231 12.7348932,16.3232077 12.7348932,14.17505 C12.7348932,11.5287687 11.0827119,9.26359485 7.11275323,9.26359485 L5.11381783,9.26359485 L5.11381783,16.1439262 Z M23.5347269,18.381188 C23.665699,18.5035718 23.665699,18.9447976 23.5347269,19.0693285 C22.4472287,19.0489312 21.8159859,19.0285339 20.7306349,19.0285339 C19.6216659,19.0285339 18.9700258,19.0500047 17.905072,19.0693285 C17.7740999,18.9458711 17.7740999,18.5046453 17.905072,18.381188 C19.4262812,18.3167754 19.7977268,18.2137154 19.7977268,16.4799449 L19.7977268,8.10631645 C19.7977268,6.37147241 19.4273547,6.26733882 17.905072,6.20507338 C17.7740999,6.07946895 17.7740999,5.64039023 17.905072,5.51478581 C18.9925702,5.53733019 19.623813,5.55772749 20.709164,5.55772749 C21.818133,5.55772749 22.4697731,5.53518311 23.5347269,5.51478581 C23.665699,5.63931669 23.665699,6.07839541 23.5347269,6.20507338 C22.0135177,6.26841237 21.6420721,6.37039887 21.6420721,8.10631645 L21.6420721,16.4799449 C21.6431457,18.2137154 22.0135177,18.3199961 23.5347269,18.381188 Z M25.9480495,18.6313233 C25.9480495,18.5271897 26.0146091,18.4649242 26.1004925,18.4649242 L26.68772,18.4241296 C27.6013044,18.35757 27.8621751,18.1310527 27.8621751,17.5481193 L27.8621751,7.04350977 C27.8621751,6.41656118 27.5347447,6.22869131 26.68772,6.16535232 L26.1230369,6.12563127 C26.03608,6.12563127 25.9491231,6.06121874 25.9491231,5.9581587 L25.9491231,5.56202166 L25.9931383,5.52122706 C27.0795629,5.5426979 27.7322765,5.56202166 28.8187011,5.56202166 C29.9051257,5.56202166 30.5363685,5.54055082 31.6013222,5.52122706 L31.6453375,5.56202166 L31.6453375,5.9581587 C31.6453375,6.06443936 31.5798514,6.12563127 31.4714237,6.12563127 L30.907814,6.16535232 C30.0371714,6.23191193 29.7118881,6.45842932 29.7118881,7.04350977 L29.7118881,11.3859876 C30.4945003,11.3859876 31.4724972,11.3645167 31.9942387,11.0735868 C33.2771215,10.4058436 33.5820074,9.06821018 33.7763186,7.90019637 C33.9942476,6.60657813 34.602946,5.43534369 36.3195398,5.43534369 C37.4703769,5.43534369 37.8632934,6.04082144 37.8632934,6.52069476 C37.8632934,7.12724605 37.3630227,7.35698406 36.9067673,7.35698406 C36.6233522,7.35698406 36.3195398,7.25285048 36.1026843,7.04350977 C35.8622109,6.81269821 35.688297,6.70749109 35.4081026,6.70749109 C34.7564625,6.70749109 34.6050931,7.3988522 34.4934447,8.00218287 C34.2540448,9.29687465 33.7977894,11.0918371 32.1445346,11.677991 L32.1445346,11.7831982 C33.6442729,11.7831982 34.4934447,12.6806794 35.0795987,14.1428437 C36.2121856,16.9608918 37.317934,18.3822615 38.0790753,18.4434534 L38.426903,18.4659978 C38.5353307,18.4659978 38.5997432,18.5293368 38.5997432,18.6313233 L38.5997432,19.0285339 L38.5771989,19.0693285 L36.8595315,19.0478576 C35.163335,19.0263868 34.3817963,17.3344844 33.4467411,15.0392514 C32.5954222,12.951212 32.1864027,12.261998 29.7086675,12.261998 L29.7086675,17.5459722 C29.7086675,18.1707737 30.0360979,18.3564965 30.9035199,18.4219826 L31.4692766,18.4627772 C31.5551599,18.4627772 31.6421168,18.5271897 31.6421168,18.6291762 L31.6421168,19.0263868 L31.5981016,19.0671814 C30.5546187,19.0263868 29.9233759,19.0263868 28.8380249,19.0263868 C27.7505267,19.0263868 27.055945,19.0263868 25.9909912,19.0671814 L25.946976,19.0263868 L25.9480495,18.6313233 L25.9480495,18.6313233 Z M46.6641916,18.381188 C46.7940902,18.5035718 46.7940902,18.9447976 46.6641916,19.0693285 C45.5766934,19.0489312 44.9454506,19.0285339 43.8600996,19.0285339 C42.7511306,19.0285339 42.0994905,19.0500047 41.0345367,19.0693285 C40.9035646,18.9458711 40.9035646,18.5046453 41.0345367,18.381188 C42.5557459,18.3167754 42.9271915,18.2137154 42.9271915,16.4799449 L42.9271915,8.10631645 C42.9271915,6.37147241 42.5568195,6.26733882 41.0345367,6.20507338 C40.9035646,6.07946895 40.9035646,5.64039023 41.0345367,5.51478581 C42.1220349,5.53733019 42.7532777,5.55772749 43.8386287,5.55772749 C44.9475977,5.55772749 45.5992378,5.53518311 46.6641916,5.51478581 C46.7940902,5.63931669 46.7940902,6.07839541 46.6641916,6.20507338 C45.1429824,6.26841237 44.7715368,6.37039887 44.7715368,8.10631645 L44.7715368,16.4799449 C44.7747574,18.2137154 45.1429824,18.3199961 46.6641916,18.381188 Z M63.4672726,5.51907997 C63.5993183,5.64253732 63.5993183,6.08161604 63.4672726,6.20722047 C61.947137,6.27163299 61.5756914,6.37361949 61.5756914,8.10846354 L61.5756914,16.4831655 C61.5756914,18.2158625 61.947137,18.3210696 63.4672726,18.3844086 C63.5993183,18.5078659 63.5993183,18.9480182 63.4672726,19.0725491 C62.4033924,19.0510782 61.7496052,19.0317545 60.6427833,19.0317545 C59.5542116,19.0317545 58.9240424,19.0542989 57.8386914,19.0725491 C57.7077192,18.9490917 57.7077192,18.5089395 57.8386914,18.3844086 C59.3599005,18.3210696 59.7302725,18.216936 59.7302725,16.4831655 L59.7302725,7.94206451 C59.7302725,6.64844627 59.2536198,6.39831096 58.7286578,6.39831096 L54.4473718,6.39831096 C53.9256304,6.39831096 53.4468306,6.64629919 53.4468306,7.94206451 L53.4468306,16.4831655 C53.4468306,18.2158625 53.8161291,18.3210696 55.3384118,18.3844086 C55.4693839,18.5078659 55.4693839,18.9480182 55.3384118,19.0725491 C54.2519872,19.0510782 53.6207444,19.0317545 52.5343198,19.0317545 C51.4264243,19.0317545 50.7737107,19.0542989 49.708757,19.0725491 C49.5777848,18.9490917 49.5777848,18.5089395 49.708757,18.3844086 C51.2299661,18.3210696 51.6003382,18.216936 51.6003382,16.4831655 L51.6003382,8.10846354 C51.6003382,6.37576658 51.2310397,6.27055945 49.708757,6.20722047 C49.5777848,6.08268958 49.5777848,5.64361086 49.708757,5.51907997 C50.7951816,5.54055082 52.0125783,5.55987457 52.512849,5.55987457 L60.6642542,5.55987457 C61.2504082,5.55987457 62.3829951,5.53840373 63.4672726,5.51907997 Z M74.0116032,10.0687514 C74.1436489,9.94422054 74.5988307,9.94422054 74.7308764,10.0687514 C74.708332,10.6967736 74.6868612,11.1541025 74.6868612,11.8647874 C74.6868612,12.5743987 74.7094056,12.9716093 74.7308764,13.703765 C74.5988307,13.8272223 74.1436489,13.8272223 74.0116032,13.703765 C73.9461171,12.7633421 73.8817046,12.2823953 72.0330651,12.2823953 L70.0556005,12.2823953 L70.0556005,17.3151607 C70.0556005,17.8787703 70.3583394,18.2126419 70.8382127,18.2126419 L73.7947477,18.2126419 C75.446929,18.2126419 76.2059233,16.9812891 76.6407078,15.4772566 C76.9273436,15.4096234 77.1753318,15.4547122 77.4018492,15.5813901 C77.2290089,16.6463439 76.9015786,18.024772 76.5977661,19.0682549 C76.5977661,19.0682549 74.8597015,19.0274603 73.815145,19.0274603 L69.1409427,19.0274603 C69.1409427,19.0274603 67.3781865,19.0500047 66.3143063,19.0682549 C66.1844077,18.9447976 66.1844077,18.5046453 66.3143063,18.3790409 C67.836589,18.3167754 68.2058875,18.2126419 68.2058875,16.4788713 L68.2058875,8.10416937 C68.2058875,6.37039887 67.836589,6.26626528 66.3143063,6.2029263 C66.1844077,6.07839541 66.1844077,5.63931669 66.3143063,5.51478581 C67.4007309,5.53625665 69.1173247,5.55558041 69.1173247,5.55558041 L74.6600226,5.55558041 C75.1806906,5.55558041 75.3546044,5.53410956 75.7239029,5.47291766 C75.7904625,5.47291766 75.8119333,5.49438851 75.8119333,5.53625665 C75.8559485,5.70265567 76.1823053,7.70695879 76.2896596,8.56257185 C76.0760247,8.66026418 75.840919,8.70535295 75.5725334,8.66777898 C75.0948072,7.22708547 74.7448325,6.39294325 73.1151955,6.39294325 L70.8339186,6.39294325 C70.3121771,6.39294325 70.0513064,6.80947759 70.0513064,7.30974821 L70.0513064,11.4869005 L72.0287709,11.4869005 C73.8817046,11.4890476 73.9461171,11.2174415 74.0116032,10.0687514 Z M83.4254939,12.7418713 C83.9021466,10.3607549 84.1640909,8.21045004 84.1640909,6.8964345 C84.1640909,6.45735578 83.9676327,6.24050027 83.4029496,6.18682317 L82.7513095,6.12348418 C82.6418082,6.12348418 82.5784692,6.0805425 82.5784692,5.99787975 L82.5784692,5.55987457 L82.6214109,5.51907997 C82.6214109,5.51907997 84.1426201,5.55987457 84.7931866,5.55987457 L90.4668566,5.55987457 C91.1184967,5.55987457 92.8361641,5.51907997 92.8361641,5.51907997 L92.8801793,5.55987457 L92.8801793,5.95601161 C92.8801793,6.0805425 92.7942959,6.11704293 92.7062655,6.12348418 L92.0750227,6.16320524 C91.3772203,6.21044109 91.2709397,6.47667953 91.2709397,7.22923255 L91.2709397,17.3988969 C91.2709397,18.1718473 91.7604749,18.4015853 92.1426559,18.4638507 C92.6128673,18.5422193 92.7814134,18.6119995 92.7942959,18.8610613 L92.9456654,21.951789 C92.3584378,21.951789 92.3584378,21.9732599 92.3584378,21.9732599 C92.0986406,20.8041725 91.3149549,19.0296074 89.5758167,19.0296074 L83.273051,19.0296074 C81.4673531,19.0296074 80.9037435,20.8879088 80.6632701,21.9732599 L80.0760426,21.951789 L80.2284855,18.8610613 C80.2435151,18.6119995 80.4711061,18.4949834 80.6858145,18.4638507 C81.1109372,18.4005117 81.4587648,18.3500552 81.7733126,18.0462428 C82.3401429,17.501957 82.7298387,15.998998 83.4254939,12.7418713 Z M85.9461708,6.39401679 C85.3600168,6.39401679 85.1420878,6.68709379 85.0991461,7.20883525 C84.9230852,9.31834549 84.5774046,11.4890476 84.3165339,12.9093438 C83.8388077,15.3516521 83.2955953,17.4192942 83.2955953,17.8572994 C83.2955953,18.1063612 83.5790105,18.2126419 83.8828229,18.2126419 L88.6429086,18.2126419 C89.16465,18.2126419 89.4255208,18.1482293 89.4255208,17.3774261 L89.4255208,7.20668817 C89.4255208,6.55934228 89.2945486,6.39401679 88.6214377,6.39401679 L85.9461708,6.39401679 L85.9461708,6.39401679 Z M101.316073,18.381188 C101.445972,18.5035718 101.445972,18.9447976 101.316073,19.0693285 C100.229649,19.0489312 99.5984058,19.0285339 98.5130547,19.0285339 C97.4040857,19.0285339 96.7513721,19.0500047 95.6864184,19.0693285 C95.5565198,18.9458711 95.5565198,18.5046453 95.6864184,18.381188 C97.2087011,18.3167754 97.5779995,18.2137154 97.5779995,16.4799449 L97.5779995,8.10631645 C97.5779995,6.37147241 97.2087011,6.26733882 95.6864184,6.20507338 C95.5565198,6.07946895 95.5565198,5.64039023 95.6864184,5.51478581 C96.7739165,5.53733019 97.4040857,5.55772749 98.4894368,5.55772749 C99.5984058,5.55772749 100.251119,5.53518311 101.316073,5.51478581 C101.445972,5.63931669 101.445972,6.07839541 101.316073,6.20507338 C99.794864,6.26841237 99.424492,6.37039887 99.424492,8.10631645 L99.424492,16.4799449 C99.424492,18.2137154 99.794864,18.3199961 101.316073,18.381188 Z M103.859294,18.4681449 C103.859294,18.3210696 103.947325,18.2341127 104.06112,18.2341127 L104.321991,18.2040535 C105.249531,18.088111 106.687004,16.4863861 108.176007,12.5561485 C108.901722,10.6452435 109.770217,9.90879365 110.553903,9.43965575 L110.553903,9.3516253 C108.581806,9.0585483 106.236117,7.58672207 106.236117,4.58724543 C106.236117,2.55825084 107.221628,0.0289856369 112.61081,0.0289856369 C113.624233,0.0289856369 115.334386,0.0579712738 116.290912,0.0579712738 C117.19054,0.0579712738 120,0.0289856369 120,0.0289856369 L120,0.646272349 C120,0.763288438 119.940955,0.850245349 119.798174,0.850245349 L118.928605,0.910363707 C117.710135,0.99839416 117.391293,1.20558779 117.391293,2.20398195 L117.391293,16.8793026 C117.391293,17.7617542 117.76918,18.0859639 118.956517,18.1739943 L119.739129,18.2351862 C119.852925,18.2351862 119.971014,18.3221431 119.971014,18.4692184 L119.971014,19.0285339 L119.913043,19.0886522 C119.913043,19.0886522 117.390219,19.0285339 116.261926,19.0285339 C115.218443,19.0285339 112.524926,19.0886522 112.524926,19.0886522 L112.465881,19.0285339 L112.465881,18.4692184 C112.465881,18.3221431 112.552838,18.2351862 112.69884,18.2351862 L113.451393,18.1739943 C114.669863,18.0805962 115.04453,17.7037829 115.04453,16.8793026 L115.04453,9.49762702 C111.973126,9.49762702 111.393413,10.351093 110.17709,13.4697328 C108.930707,16.6613735 107.858239,19.0253132 105.801332,19.0575195 L103.88828,19.0854316 L103.861441,19.0263868 L103.861441,18.4670713 L103.859294,18.4670713 L103.859294,18.4681449 Z M112.784723,8.38114323 L115.04453,8.38114323 L115.04453,2.11917212 C115.04453,1.14654297 114.929661,1.05958606 112.40791,1.05958606 C110.783641,1.05958606 108.58288,1.5297975 108.58288,4.26410925 C108.58288,7.38060199 110.379989,8.38114323 112.784723,8.38114323 Z" id="rue-wordmark" fill="#000000" fill-rule="nonzero"></path>
    </g>
</svg>

<svg xmlns="http://www.w3.org/2000/svg" width="120" height="22"><path fill="#000" fill-rule="nonzero" d="M7.49 0c5.39 0 6.23 2.558 6.23 4.527 0 1.599-1.3 3.108-2.752 3.854v.06c2.522.736 4.463 2.351 4.463 5.176 0 2.527-1.538 5.472-7.304 5.472-2.577 0-2.983-.06-4.23-.06-1.477 0-2.347.029-3.767.06-.173-.177-.173-.796 0-.972 2.03-.088 2.522-.235 2.522-2.676V3.647C2.652 1.207 2.16 1.06.13.97-.043.795-.043.177.13.001c1.45.028 2.29.06 3.739.06C5.114.058 6.475 0 7.489 0ZM5.114 8.264h2.145c2.404 0 4.115-.883 4.115-3.382 0-3-2.115-3.881-3.737-3.881-2.522 0-2.522.294-2.522 1.265l-.001 5.998Zm0 7.88c0 .971.378 1.972 2.405 1.972 4.405 0 5.216-1.793 5.216-3.94 0-2.647-1.652-4.912-5.622-4.912h-2v6.88Zm18.42 2.237c.132.123.132.564 0 .688-1.087-.02-1.718-.04-2.803-.04-1.11 0-1.761.021-2.826.04-.13-.123-.13-.564 0-.688 1.521-.064 1.893-.167 1.893-1.901V8.106c0-1.735-.37-1.839-1.893-1.9-.13-.127-.13-.566 0-.691 1.088.022 1.719.043 2.804.043 1.11 0 1.76-.023 2.826-.043.13.124.13.563 0 .69-1.521.063-1.893.165-1.893 1.901v8.374c.001 1.734.372 1.84 1.893 1.901Zm2.414.25c0-.104.067-.166.152-.166l.588-.04c.913-.067 1.174-.294 1.174-.877V7.044c0-.627-.327-.815-1.174-.879l-.565-.04c-.087 0-.174-.064-.174-.167v-.396l.044-.04c1.087.02 1.74.04 2.826.04s1.717-.021 2.782-.04l.044.04v.396c0 .106-.065.168-.174.168l-.563.04c-.87.066-1.196.292-1.196.878v4.342c.783 0 1.76-.021 2.282-.312 1.283-.668 1.588-2.006 1.782-3.174.218-1.293.827-2.465 2.544-2.465 1.15 0 1.543.606 1.543 1.086 0 .606-.5.836-.956.836-.284 0-.587-.104-.804-.313-.24-.231-.415-.337-.695-.337-.652 0-.803.692-.915 1.295-.239 1.295-.695 3.09-2.348 3.676v.105c1.5 0 2.348.898 2.935 2.36 1.132 2.818 2.238 4.24 3 4.3l.347.023c.108 0 .173.063.173.165v.398l-.023.04-1.717-.021c-1.697-.022-2.478-1.714-3.413-4.009-.852-2.088-1.26-2.777-3.738-2.777v5.284c0 .625.327.81 1.195.876l.565.04c.086 0 .173.065.173.167v.397l-.044.041c-1.043-.04-1.675-.04-2.76-.04-1.087 0-1.782 0-2.847.04l-.044-.04.001-.396Zm20.716-.25c.13.123.13.564 0 .688-1.087-.02-1.719-.04-2.804-.04-1.109 0-1.76.021-2.825.04-.131-.123-.131-.564 0-.688 1.52-.064 1.892-.167 1.892-1.901V8.106c0-1.735-.37-1.839-1.892-1.9-.131-.127-.131-.566 0-.691 1.087.022 1.718.043 2.804.043 1.109 0 1.76-.023 2.825-.043.13.124.13.563 0 .69-1.521.063-1.892.165-1.892 1.901v8.374c.003 1.734.371 1.84 1.892 1.901ZM63.467 5.52c.132.124.132.563 0 .688-1.52.065-1.891.167-1.891 1.901v8.375c0 1.733.371 1.838 1.891 1.901.132.124.132.564 0 .689-1.064-.022-1.717-.041-2.824-.041-1.089 0-1.719.022-2.804.04-.131-.123-.131-.563 0-.688 1.52-.063 1.891-.167 1.891-1.9V7.941c0-1.294-.476-1.544-1.001-1.544h-4.282c-.521 0-1 .248-1 1.544v8.541c0 1.733.37 1.838 1.891 1.901.131.124.131.564 0 .689-1.086-.022-1.717-.041-2.804-.041-1.108 0-1.76.022-2.825.04-.131-.123-.131-.563 0-.688 1.521-.063 1.891-.167 1.891-1.9V8.107c0-1.732-.369-1.837-1.891-1.9-.131-.125-.131-.564 0-.689 1.086.022 2.304.04 2.804.04h8.151c.586 0 1.719-.02 2.803-.04Zm10.545 4.55c.132-.125.587-.125.719 0-.023.628-.044 1.085-.044 1.796 0 .71.022 1.107.044 1.839-.132.123-.587.123-.72 0-.065-.94-.13-1.422-1.978-1.422h-1.977v5.033c0 .564.302.898.782.898h2.957c1.652 0 2.41-1.232 2.846-2.736.286-.067.534-.022.76.104a32.25 32.25 0 0 1-.803 3.487s-1.738-.04-2.783-.04h-4.674s-1.763.022-2.827.04c-.13-.123-.13-.563 0-.689 1.523-.062 1.892-.166 1.892-1.9V8.104c0-1.734-.37-1.838-1.892-1.901-.13-.125-.13-.564 0-.688 1.087.021 2.803.04 2.803.04h5.543c.52 0 .695-.02 1.064-.082.066 0 .088.021.088.063.044.167.37 2.171.478 3.027a1.26 1.26 0 0 1-.717.105c-.478-1.44-.828-2.275-2.458-2.275h-2.281c-.522 0-.783.416-.783.917v4.177h1.978c1.853.002 1.917-.27 1.983-1.418Zm9.413 2.673c.477-2.381.74-4.532.74-5.846 0-.439-.197-.655-.762-.71l-.652-.063c-.11 0-.173-.042-.173-.125V5.56l.043-.04s1.522.04 2.172.04h5.674c.651 0 2.37-.04 2.37-.04l.043.04v.396c0 .125-.086.161-.174.167l-.631.04c-.698.047-.804.314-.804 1.066V17.4c0 .773.49 1.003.872 1.065.47.078.638.148.651.397l.152 3.09c-.588 0-.588.022-.588.022-.26-1.169-1.043-2.943-2.782-2.943h-6.303c-1.806 0-2.37 1.858-2.61 2.943l-.587-.021.152-3.09c.016-.25.243-.367.458-.398.425-.063.773-.114 1.087-.418.567-.544.957-2.047 1.652-5.304Zm2.521-6.348c-.586 0-.804.293-.847.815-.176 2.11-.522 4.28-.782 5.7-.478 2.443-1.021 4.51-1.021 4.948 0 .25.283.356.587.356h4.76c.522 0 .783-.065.783-.836V7.207c0-.648-.131-.813-.805-.813h-2.675Zm15.37 11.987c.13.123.13.564 0 .688-1.086-.02-1.718-.04-2.803-.04-1.109 0-1.762.021-2.827.04-.13-.123-.13-.564 0-.688 1.523-.064 1.892-.167 1.892-1.901V8.106c0-1.735-.37-1.839-1.892-1.9-.13-.127-.13-.566 0-.691 1.088.022 1.718.043 2.803.043 1.11 0 1.762-.023 2.827-.043.13.124.13.563 0 .69-1.521.063-1.892.165-1.892 1.901v8.374c0 1.734.37 1.84 1.892 1.901Zm2.543.087c0-.147.088-.234.202-.234l.261-.03c.928-.116 2.365-1.718 3.854-5.648.726-1.91 1.594-2.647 2.378-3.116v-.088c-1.972-.293-4.318-1.765-4.318-4.765 0-2.029.986-4.558 6.375-4.558 1.013 0 2.723.029 3.68.029.9 0 3.709-.029 3.709-.029v.617c0 .117-.059.204-.202.204l-.87.06c-1.218.088-1.537.296-1.537 1.294v14.675c0 .883.378 1.207 1.566 1.295l.782.061a.23.23 0 0 1 .232.234v.56l-.058.06s-2.523-.06-3.651-.06c-1.044 0-3.737.06-3.737.06l-.06-.06v-.56c0-.147.088-.234.234-.234l.752-.061c1.219-.093 1.594-.47 1.594-1.295V9.498c-3.072 0-3.652.853-4.868 3.972-1.246 3.191-2.319 5.555-4.376 5.588l-1.913.027-.027-.059v-.559h-.002v.001Zm8.926-10.087h2.26V2.12c0-.972-.115-1.06-2.637-1.06-1.624 0-3.825.47-3.825 3.205 0 3.117 1.797 4.117 4.202 4.117Z"/></svg>
